X:5
T:So Early In The Morning (a)
M:6/8
L:1/8
K:F
c|\
c2B A2G|F3 C2C|F2F GAB|A2F F2|
A|\
B2B BAG|A2A AGF|G2c ccd|c2B G2c|
c2B A2G|F3  C2C|F2F GAB|A2F F2||
